src/stone-cut-radiant.svg

<svg xmlns="http://www.w3.org/2000/svg" class="dibsvg-svg dibsvg-stone-cut-radiant" viewBox="0 0 250 250">
    <path d="M197.9-.5H50.6L6.5 45.7v156.1L52.6 250h146.9l44.6-47.2V46.7L197.9-.5zm17.5 52.2l-21.1-23 4.6-15.3 32.3 33-15.8 5.3zm-83.9 133.7l-.1.1-5.5 1.1-5.6-1.1v-.1l-.1.1-44.2-9-7-52.5 7-52.2 50-10.2 47.5 9.7 7.2 53.9 2 4.9-6.7 46.5-44.3 9-.2-.2zM75.1 62.8L67 36.1 108.3 56l-33.2 6.8zm-12.9 44.8l-20-44.9L67 71.1l-4.8 36.5zm-2.6 16.5L41 169.6V82.2l18.6 41.9zm2.7 17.2l4.8 35.9-22.5 7.6 17.7-43.5zm12.9 44.2l31.4 6.4-38 17.9 6.6-24.3zm99.3.5l6.7 22-35.5-16.1 28.8-5.9zm14.9-39.5l15.2 37.2-19.6-6.4 4.4-30.8zm2.6-17.6l.4-2.7 18.6-45v94.3l-19-46.6zm-3.8-16.1l-5.5-41 25.9-8.5-20.4 49.5zm-13.6-50.5L144 56.1l37.8-17.4-7.2 23.6zM129.1 53l-3.1-.6-3.1.6-41.7-20h91.4l-43.5 20zm-64 7.9l-20.7-7 13.9-15.3 6.8 22.3zm.4 126.3L59 211.5l-14.9-17.1 21.4-7.2zm55.9 7.7l4.6.9 4.7-1L175 215H78.9l42.5-20.1zm62.6-8.6l23.8 7.8-16.1 17.4-7.7-25.2zm.2-124.4l7.1-23.2L206 54.8l-21.8 7.1zm2.1-37.9h-123L58.6 8.5H191L186.3 24zm-131 4.6L35.1 50.9l-16-5.4 31.3-32.8 4.9 15.9zM32 59.3V189l-16.5 5.5V53.8L32 59.3zm2.9 138.2l21.3 24.4-3.9 14.7-32.5-34 15.1-5.1zm30 26.5h121.3l5.2 17h-131l4.5-17zm129.9-2.5l22.4-24.2 15 4.9-32.7 34.6-4.7-15.3zm25.2-32.8v-129l15-4.9v138.9l-15-5z"/>
</svg>

<svg xmlns="http://www.w3.org/2000/svg" class="dibsvg-svg dibsvg-stone-cut-radiant" viewBox="0 0 250 250">
    <path d="M197.9-0.5H50.6L6.5,45.7v156.1L52.6,250h146.9l44.6-47.2V46.7L197.9-0.5z M215.4,51.7l-21.1-23l4.6-15.3l32.3,33 L215.4,51.7z M131.5,185.4l-0.1,0.1l-5.5,1.1l-5.6-1.1l0-0.1l-0.1,0.1l-44.2-9L69,124l7-52.2l50-10.2l47.5,9.7l7.2,53.9l2,4.9 l-6.7,46.5l-44.3,9L131.5,185.4z M75.1,62.8L67,36.1L108.3,56L75.1,62.8z M62.2,107.6l-20-44.9L67,71.1L62.2,107.6z M59.6,124.1 L41,169.6V82.2L59.6,124.1z M62.3,141.3l4.8,35.9l-22.5,7.6L62.3,141.3z M75.2,185.5l31.4,6.4l-38,17.9L75.2,185.5z M174.5,186 l6.7,22l-35.5-16.1L174.5,186z M189.4,146.5l15.2,37.2l-19.6-6.4L189.4,146.5z M192,128.9l0.4-2.7l18.6-45v94.3L192,128.9z M188.2,112.8l-5.5-41l25.9-8.5L188.2,112.8z M174.6,62.3L144,56.1l37.8-17.4L174.6,62.3z M129.1,53l-3.1-0.6l-3.1,0.6L81.2,33h91.4 L129.1,53z M65.1,60.9l-20.7-7l13.9-15.3L65.1,60.9z M65.5,187.2L59,211.5l-14.9-17.1L65.5,187.2z M121.4,194.9l4.6,0.9l4.7-1 L175,215H78.9L121.4,194.9z M184,186.3l23.8,7.8l-16.1,17.4L184,186.3z M184.2,61.9l7.1-23.2L206,54.8L184.2,61.9z M186.3,24h-123 L58.6,8.5H191L186.3,24z M55.3,28.6L35.1,50.9l-16-5.4l31.3-32.8L55.3,28.6z M32,59.3V189l-16.5,5.5V53.8L32,59.3z M34.9,197.5 l21.3,24.4l-3.9,14.7l-32.5-34L34.9,197.5z M64.9,224h121.3l5.2,17h-131L64.9,224z M194.8,221.5l22.4-24.2l15,4.9l-32.7,34.6 L194.8,221.5z M220,188.7v-129l15-4.9v138.9L220,188.7z"/>
</svg>
